IndexPage/static/IndexPage/img/notebook.svg

<svg width="132" height="132" viewBox="0 0 132 132" fill="none" xmlns="http://www.w3.org/2000/svg">
<g clip-path="url(#clip0)">
<path d="M125.354 20.4832H118.729V5.16168C118.729 3.33208 120.212 1.84894 122.041 1.84894C123.871 1.84894 125.354 3.33208 125.354 5.16168V20.4832Z" fill="#676E84"/>
<path d="M116.065 16.8299V114.938L119.976 129.972C120.562 132.222 123.756 132.222 124.342 129.972L128.253 114.938V16.8299C128.253 15.3995 127.093 14.24 125.663 14.24H118.655C117.225 14.24 116.065 15.3995 116.065 16.8299Z" fill="#7DECC4"/>
<path d="M124.342 129.972L128.253 114.939H116.065L119.976 129.972C120.562 132.222 123.757 132.222 124.342 129.972Z" fill="#676E84"/>
<path d="M116.065 23.5222H128.253V31.6964H116.065V23.5222Z" fill="#676E84"/>
<path d="M100.54 131.66H18.6636C15.1985 131.66 12.3896 128.851 12.3896 125.386V6.82719C12.3894 3.36234 15.1985 0.553284 18.6636 0.553284H100.54C104.005 0.553284 106.814 3.36234 106.814 6.82719V125.386C106.814 128.851 104.005 131.66 100.54 131.66Z" fill="#EAECF0"/>
<path d="M100.541 0.553284H92.9121V131.66H100.541C104.006 131.66 106.815 128.851 106.815 125.386V6.82719C106.815 3.36234 104.006 0.553284 100.541 0.553284V0.553284Z" fill="#D3D7DE"/>
<path d="M64.221 17.6389H32.9403C31.8477 17.6389 30.9619 16.7532 30.9619 15.6605C30.9619 14.5679 31.8477 13.6821 32.9403 13.6821H64.221C65.3136 13.6821 66.1993 14.5679 66.1993 15.6605C66.1993 16.7532 65.3136 17.6389 64.221 17.6389Z" fill="#676E84"/>
<path d="M91.8061 38.8009H32.9403C31.8477 38.8009 30.9619 37.9151 30.9619 36.8225C30.9619 35.7299 31.8477 34.8441 32.9403 34.8441H91.8063C92.8992 34.8441 93.7847 35.7299 93.7847 36.8225C93.7847 37.9151 92.899 38.8009 91.8061 38.8009Z" fill="#676E84"/>
<path d="M91.8061 58.1422H32.9403C31.8477 58.1422 30.9619 57.2564 30.9619 56.1638C30.9619 55.0712 31.8477 54.1854 32.9403 54.1854H91.8063C92.8992 54.1854 93.7847 55.0712 93.7847 56.1638C93.7847 57.2564 92.899 58.1422 91.8061 58.1422Z" fill="#676E84"/>
<path d="M91.8061 77.4836H32.9403C31.8477 77.4836 30.9619 76.5979 30.9619 75.5052C30.9619 74.4126 31.8477 73.5269 32.9403 73.5269H91.8063C92.8992 73.5269 93.7847 74.4126 93.7847 75.5052C93.7847 76.5979 92.899 77.4836 91.8061 77.4836Z" fill="#676E84"/>
<path d="M91.8061 96.8249H32.9403C31.8477 96.8249 30.9619 95.9392 30.9619 94.8465C30.9619 93.7539 31.8477 92.8682 32.9403 92.8682H91.8063C92.8992 92.8682 93.7847 93.7539 93.7847 94.8465C93.7847 95.9392 92.899 96.8249 91.8061 96.8249Z" fill="#676E84"/>
<path d="M91.8061 116.166H32.9403C31.8477 116.166 30.9619 115.28 30.9619 114.188C30.9619 113.095 31.8477 112.209 32.9403 112.209H91.8063C92.8992 112.209 93.7847 113.095 93.7847 114.188C93.7847 115.28 92.899 116.166 91.8061 116.166Z" fill="#676E84"/>
<path d="M16.4132 24.2492H8.36575C5.94822 24.2492 3.98828 22.2893 3.98828 19.8717C3.98828 17.4542 5.94822 15.4943 8.36575 15.4943H16.4132C18.8307 15.4943 20.7907 17.4542 20.7907 19.8717C20.7907 22.2895 18.831 24.2492 16.4132 24.2492Z" fill="#676E84"/>
<path d="M16.4132 47.3666H8.36575C5.94822 47.3666 3.98828 45.4067 3.98828 42.9892C3.98828 40.5716 5.94822 38.6117 8.36575 38.6117H16.4132C18.8307 38.6117 20.7907 40.5716 20.7907 42.9892C20.7907 45.4067 18.831 47.3666 16.4132 47.3666Z" fill="#676E84"/>
<path d="M16.4132 70.484H8.36575C5.94822 70.484 3.98828 68.5241 3.98828 66.1065C3.98828 63.689 5.94822 61.7291 8.36575 61.7291H16.4132C18.8307 61.7291 20.7907 63.689 20.7907 66.1065C20.7907 68.5241 18.831 70.484 16.4132 70.484Z" fill="#676E84"/>
<path d="M16.4132 93.6014H8.36575C5.94822 93.6014 3.98828 91.6415 3.98828 89.224C3.98828 86.8064 5.94822 84.8465 8.36575 84.8465H16.4132C18.8307 84.8465 20.7907 86.8064 20.7907 89.224C20.7907 91.6415 18.831 93.6014 16.4132 93.6014Z" fill="#676E84"/>
<path d="M16.4132 116.719H8.36575C5.94822 116.719 3.98828 114.759 3.98828 112.341C3.98828 109.924 5.94822 107.964 8.36575 107.964H16.4132C18.8307 107.964 20.7907 109.924 20.7907 112.341C20.7907 114.759 18.831 116.719 16.4132 116.719Z" fill="#676E84"/>
</g>
<defs>
<clipPath id="clip0">
<rect width="131.107" height="131.107" fill="white" transform="translate(0.567383 0.553284)"/>
</clipPath>
</defs>
</svg>

<svg width="132" height="132" fill="none" xmlns="http://www.w3.org/2000/svg"><g clip-path="url(#clip0)"><path d="M125.354 20.483h-6.625V5.162a3.312 3.312 0 116.625 0v15.321z" fill="#676E84"/><path d="M116.065 16.83v98.108l3.911 15.034c.586 2.25 3.78 2.25 4.366 0l3.911-15.034V16.83a2.59 2.59 0 00-2.59-2.59h-7.008a2.59 2.59 0 00-2.59 2.59z" fill="#7DECC4"/><path d="M124.342 129.972l3.911-15.033h-12.188l3.911 15.033c.586 2.25 3.781 2.25 4.366 0zM116.065 23.522h12.188v8.174h-12.188v-8.174z" fill="#676E84"/><path d="M100.54 131.66H18.664a6.274 6.274 0 01-6.274-6.274V6.827A6.274 6.274 0 0118.664.553h81.876a6.274 6.274 0 016.274 6.274v118.559a6.274 6.274 0 01-6.274 6.274z" fill="#EAECF0"/><path d="M100.541.553h-7.629V131.66h7.629a6.274 6.274 0 006.274-6.274V6.827a6.274 6.274 0 00-6.274-6.274z" fill="#D3D7DE"/><path d="M64.221 17.639h-31.28a1.978 1.978 0 110-3.957h31.28a1.978 1.978 0 010 3.957zM91.806 38.8H32.94a1.978 1.978 0 010-3.956h58.866a1.978 1.978 0 110 3.957zM91.806 58.142H32.94a1.978 1.978 0 010-3.957h58.866a1.978 1.978 0 110 3.957zM91.806 77.484H32.94a1.978 1.978 0 110-3.957h58.866a1.978 1.978 0 110 3.957zM91.806 96.825H32.94a1.978 1.978 0 110-3.957h58.866a1.978 1.978 0 110 3.957zM91.806 116.166H32.94a1.978 1.978 0 010-3.957h58.866a1.979 1.979 0 010 3.957zM16.413 24.25H8.366a4.378 4.378 0 010-8.756h8.047a4.378 4.378 0 010 8.755zM16.413 47.367H8.366a4.378 4.378 0 010-8.755h8.047a4.378 4.378 0 010 8.755zM16.413 70.484H8.366a4.378 4.378 0 010-8.755h8.047a4.378 4.378 0 010 8.755zM16.413 93.601H8.366a4.378 4.378 0 010-8.754h8.047a4.378 4.378 0 010 8.754zM16.413 116.719H8.366a4.378 4.378 0 010-8.755h8.047a4.378 4.378 0 010 8.755z" fill="#676E84"/></g><defs><clipPath id="clip0"><path fill="#fff" transform="translate(.567 .553)" d="M0 0h131.107v131.107H0z"/></clipPath></defs></svg>
